X: 35443
T: Roving Blade, The
R: slip jig
M: 9/8
K: Gmajor
|:B||A3 BAG BAG|A3 BAG A2d|A3 BAG BAG|G2E E2F G2:|
|:B||A2D D2A BAG|A2D D2A F2d|A2D D2A BAG|G2E E2F G2:|
g|:d2d dcB dcB|d2d dcB efg|ded dcB dcB|e2A A2B cde:|
|:d2G G2g dcB|d2G G2A B2e|d2G G2g dcB|c2A A2B cde:|
|:def gag fed|g2B B2c d2e|def gag fed|e2A A2B cde:|

